X:1
T:Title
%%score [ ( 1 2 ) ( 3 4 ) ]
L:1/8
Q:1/4=100
M:4/4
K:Bb
V:1 treble nm="S A"
V:2 treble 
V:3 bass nm="T B"
V:4 bass 
V:1
"^Reliance (10 10. 10 10)""^Henry Twells\n(1823-1900)""^S. S. Wesley\n(1810-1876)""^Awake, O Lord, as in the time of old!" G2 | %1
 B3 c d2 e2 | d2 cB A3 A | G6 B2 | B2 c2 d2 c2 | B2 d2 c3 B | B6 || d2 | d2 cB c3 d | d2 c2 c3 B | %10
 A6 A2 | A2 B2 c2 c2 | d2 c2 A3 A | G6 |] %14
V:2
 D2 | D3 ^F G2 G2 | ^F2 D2 D3 D | B,6 D2 | D2 F2 F2 E2 | D2 B,2 C3 D | D6 || F2 | F2 G2 G2 ^F2 | %9
 G2 G2 A2 D=E | ^F6 F2 | ^F2 G2 G2 =FE | D3 C D2 C2 | =B,6 |] %14
V:3
 B,2 | B,2 D2 D2 CB, | A,2 G,2 G,2 ^F,2 | G,6 D2 | D2 C2 B,3 A, | G,2 F,B, B,2 A,F, | F,6 || %7
"^1. Awake, O Lord, as in the time of old!\nCome, Holy Spirit, in Thy power and might;\nFor lack of Thee our hearts are strangely cold,\nOur minds but blindly groping towards the light.\n\n2. Doubts are abroad: make Thou these doubts to cease!\nFears are within: set Thou these fears at rest!\nStrife is among us: melt that strife to peace!\nChange marches onward: may all change be blest!" B,2 | %8
 B,2 D2 =E2 D2 | DF E2 D3 ^C | %10
 D6"^3. Make us to be what we profess to be;\nLet prayer be prayer, and praise be heartfelt praise;\nFrom unreality, O set us free,\nAnd let our words be echoed by our ways.\n\n4. Turn us, good Lord, and so shall we be turned:\nLet every passion grieving Thee be stilled:\nThen shall our race be won, our guerdon earned,\nOur Master looked on, and our joy fulfilled." D2 | %11
 D2 D2 E2 C2 | B,^F, G,2 G,2 F,2 | G,6 |] %14
V:4
 G,2 | G,,3 A,, B,,2 C,2 | D,2 G,,2 D,3 D, | G,6 G,2 | G,2 A,2 B,2 F,2 | G,2 D,2 F,3 B,, | B,,6 || %7
 B,2 | B,2 B,,2 B,2 B,2 | =B,2 C2 ^F,2 G,2 | D,6 D,2 | D,2 G,2 C,2 A,,2 | B,,2 E,2 D,3 D, | G,,6 |] %14

